src/assets/outline/Ticket.svg

<?xml version="1.0" encoding="UTF-8"?>
<svg width="24" height="24" viewBox="0 0 24 24" xmlns="http://www.w3.org/2000/svg">
 <path d="m17 20.75h-10c-4.41 0-5.75-1.34-5.75-5.75v-0.5c0-0.41 0.34-0.75 0.75-0.75 0.96 0 1.75-0.79 1.75-1.75s-0.79-1.75-1.75-1.75c-0.41 0-0.75-0.34-0.75-0.75v-0.5c0-4.41 1.34-5.75 5.75-5.75h10c4.41 0 5.75 1.34 5.75 5.75v1c0 0.41-0.34 0.75-0.75 0.75-0.96 0-1.75 0.79-1.75 1.75s0.79 1.75 1.75 1.75c0.41 0 0.75 0.34 0.75 0.75 0 4.41-1.34 5.75-5.75 5.75zm-14.25-5.59c0.02 3.44 0.73 4.09 4.25 4.09h10c3.34 0 4.15-0.59 4.24-3.59-1.43-0.34-2.49-1.63-2.49-3.16s1.07-2.82 2.5-3.16v-0.34c0-3.57-0.67-4.25-4.25-4.25h-10c-3.52 0-4.23 0.65-4.25 4.09 1.43 0.34 2.5 1.63 2.5 3.16s-1.07 2.82-2.5 3.16z"/>
 <path d="m10 7.25c-0.41 0-0.75-0.34-0.75-0.75v-2.5c0-0.41 0.34-0.75 0.75-0.75s0.75 0.34 0.75 0.75v2.5c0 0.41-0.34 0.75-0.75 0.75z"/>
 <path d="m10 14.58c-0.41 0-0.75-0.34-0.75-0.75v-3.67c0-0.41003 0.34-0.75003 0.75-0.75003s0.75 0.34 0.75 0.75003v3.67c0 0.42-0.34 0.75-0.75 0.75z"/>
 <path d="m10 20.75c-0.41 0-0.75-0.34-0.75-0.75v-2.5c0-0.41 0.34-0.75 0.75-0.75s0.75 0.34 0.75 0.75v2.5c0 0.41-0.34 0.75-0.75 0.75z"/>
</svg>

<svg width="24" height="24" viewBox="0 0 24 24"  xmlns="http://www.w3.org/2000/svg">
<path d="M17 20.75H7C2.59 20.75 1.25 19.41 1.25 15V14.5C1.25 14.09 1.59 13.75 2 13.75C2.96 13.75 3.75 12.96 3.75 12C3.75 11.04 2.96 10.25 2 10.25C1.59 10.25 1.25 9.91 1.25 9.5V9C1.25 4.59 2.59 3.25 7 3.25H17C21.41 3.25 22.75 4.59 22.75 9V10C22.75 10.41 22.41 10.75 22 10.75C21.04 10.75 20.25 11.54 20.25 12.5C20.25 13.46 21.04 14.25 22 14.25C22.41 14.25 22.75 14.59 22.75 15C22.75 19.41 21.41 20.75 17 20.75ZM2.75 15.16C2.77 18.6 3.48 19.25 7 19.25H17C20.34 19.25 21.15 18.66 21.24 15.66C19.81 15.32 18.75 14.03 18.75 12.5C18.75 10.97 19.82 9.68 21.25 9.34V9C21.25 5.43 20.58 4.75 17 4.75H7C3.48 4.75 2.77 5.4 2.75 8.84C4.18 9.18 5.25 10.47 5.25 12C5.25 13.53 4.18 14.82 2.75 15.16Z" />
<path d="M10 7.25C9.59 7.25 9.25 6.91 9.25 6.5V4C9.25 3.59 9.59 3.25 10 3.25C10.41 3.25 10.75 3.59 10.75 4V6.5C10.75 6.91 10.41 7.25 10 7.25Z" />
<path d="M10 14.58C9.59 14.58 9.25 14.24 9.25 13.83V10.16C9.25 9.74997 9.59 9.40997 10 9.40997C10.41 9.40997 10.75 9.74997 10.75 10.16V13.83C10.75 14.25 10.41 14.58 10 14.58Z" />
<path d="M10 20.75C9.59 20.75 9.25 20.41 9.25 20V17.5C9.25 17.09 9.59 16.75 10 16.75C10.41 16.75 10.75 17.09 10.75 17.5V20C10.75 20.41 10.41 20.75 10 20.75Z" />
</svg>
